icons/Waning Gibbous Moon--1504975.svg

<svg enable-background="new 0 0 16 16" viewBox="0 0 16 16" xmlns="http://www.w3.org/2000/svg"><path d="m8 15c-3.86 0-7-3.141-7-7 0-3.86 3.14-7 7-7 1.553 0 3.083.528 4.308 1.486.218.17.257.484.086.702s-.486.254-.701.086c-1.067-.834-2.343-1.274-3.693-1.274-3.309 0-6 2.691-6 6s2.691 6 6 6c1.351 0 2.627-.44 3.691-1.273.218-.172.531-.133.702.085.17.218.132.532-.085.702-1.225.959-2.754 1.486-4.308 1.486z"/><path d="m12 13.62c-.107 0-.216-.034-.307-.105-1.712-1.328-2.693-3.339-2.693-5.515 0-.218.011-.424.033-.641.093-1.073.443-2.125 1.013-3.034.431-.709.986-1.331 1.649-1.841.219-.17.532-.129.701.091.168.219.127.533-.092.701-.564.435-1.038.964-1.407 1.573-.489.782-.788 1.68-.869 2.604-.019.191-.028.364-.028.547 0 1.865.841 3.587 2.307 4.726.218.169.258.483.088.701-.098.127-.247.193-.395.193z"/><path d="m9.53 7.91c-.048 0-.096-.007-.144-.021-.828-.249-1.386-1.008-1.386-1.889 0-1.103.897-2 2-2 .228 0 .448.042.656.126.256.103.381.394.277.65-.103.256-.394.379-.65.277-.088-.034-.185-.053-.283-.053-.552 0-1 .449-1 1 0 .436.271.811.674.931.265.08.415.358.335.623-.065.217-.264.356-.479.356z"/><path d="m6.5 12c-.827 0-1.5-.673-1.5-1.5s.673-1.5 1.5-1.5 1.5.673 1.5 1.5-.673 1.5-1.5 1.5zm0-2c-.276 0-.5.225-.5.5s.224.5.5.5.5-.225.5-.5-.224-.5-.5-.5z"/></svg>

<?xml version="1.0" encoding="utf-8"?>
<!DOCTYPE svg PUBLIC "-//W3C//DTD SVG 1.0//EN" "http://www.w3.org/TR/2001/REC-SVG-20010904/DTD/svg10.dtd">
<svg    fill="#000000" xmlns="http://www.w3.org/2000/svg" xmlns:xlink="http://www.w3.org/1999/xlink" version="1.1" x="0px" y="0px" viewBox="0 0 16 16" style="enable-background:new 0 0 16 16;" xml:space="preserve"><g><path d="M8,15c-3.86,0-7-3.141-7-7c0-3.86,3.14-7,7-7c1.553,0,3.083,0.528,4.308,1.486c0.218,0.17,0.257,0.484,0.086,0.702   s-0.486,0.254-0.701,0.086C10.626,2.44,9.35,2,8,2C4.691,2,2,4.691,2,8s2.691,6,6,6c1.351,0,2.627-0.44,3.691-1.273   c0.218-0.172,0.531-0.133,0.702,0.085c0.17,0.218,0.132,0.532-0.085,0.702C11.083,14.473,9.554,15,8,15z"></path><path d="M12,13.62c-0.107,0-0.216-0.034-0.307-0.105C9.981,12.187,9,10.176,9,8c0-0.218,0.011-0.424,0.033-0.641   c0.093-1.073,0.443-2.125,1.013-3.034c0.431-0.709,0.986-1.331,1.649-1.841c0.219-0.17,0.532-0.129,0.701,0.091   c0.168,0.219,0.127,0.533-0.092,0.701c-0.564,0.435-1.038,0.964-1.407,1.573c-0.489,0.782-0.788,1.68-0.869,2.604   C10.009,7.644,10,7.817,10,8c0,1.865,0.841,3.587,2.307,4.726c0.218,0.169,0.258,0.483,0.088,0.701   C12.297,13.554,12.148,13.62,12,13.62z"></path><path d="M9.53,7.91c-0.048,0-0.096-0.007-0.144-0.021C8.558,7.64,8,6.881,8,6c0-1.103,0.897-2,2-2c0.228,0,0.448,0.042,0.656,0.126   c0.256,0.103,0.381,0.394,0.277,0.65c-0.103,0.256-0.394,0.379-0.65,0.277C10.195,5.019,10.098,5,10,5C9.448,5,9,5.449,9,6   c0,0.436,0.271,0.811,0.674,0.931c0.265,0.08,0.415,0.358,0.335,0.623C9.944,7.771,9.745,7.91,9.53,7.91z"></path><path d="M6.5,12C5.673,12,5,11.327,5,10.5S5.673,9,6.5,9S8,9.673,8,10.5S7.327,12,6.5,12z M6.5,10C6.224,10,6,10.225,6,10.5   S6.224,11,6.5,11S7,10.775,7,10.5S6.776,10,6.5,10z"></path></g></svg>
